!!!OTL: MARIA DIE WOLLT WANDERN
!!!ARE: Europa, Mitteleuropa, Deutschland, Fulda
!!!SCT: E2058
!!!YEM: Copyright 1995, estate of Helmut Schaffrath.
**kern
*ICvox
*Ivox
*M4/4
*k[b-]
*F:
{4c
=1
4f
4f
4g
4cc
=2
4.a
8g
4f}
{4cc
=3
4b-
4b-
4a
4cc
=4
2g
4r}
{4cc
=5
4cc
4a
8cc
8b-
4g
=6
4.a
8b-
4cc}
{4a
=7
4cc
4a
8cc
8b-
4g
=8
2f
4r}
==
!!!AGN: geistlich, Marien - Lied, Legende
!!!ONB: ESAC (Essen Associative Code) Database: ERK3
!!!AMT: simple quadruple
!!!AIN: vox
!!!EED: Helmut Schaffrath
!!!EEV: 1.0
*-
